; generated by Slic3r Prusa Edition 1.38.6-prusa3d-win64 on 2018-07-10 at 16:05:29

; 

; external perimeters extrusion width = 0.45mm
; perimeters extrusion width = 0.45mm
; infill extrusion width = 0.45mm
; solid infill extrusion width = 0.45mm
; top infill extrusion width = 0.40mm
; first layer extrusion width = 0.70mm

M107
M115 U3.1.0 ; tell printer latest fw version
M83  ; extruder relative mode
M104 S255 ; set extruder temp
M140 S100 ; set bed temp
M190 S100 ; wait for bed temp
M109 S255 ; wait for extruder temp
G28 W ; home all without mesh bed level
G80 ; mesh bed leveling
G1 Y-3.0 F1000.0 ; go outside print area
G92 E0.0
G1 X60.0 E9.0  F1000.0 ; intro line
G1 X100.0 E12.5  F1000.0 ; intro line
G92 E0.0
M900 K30; Filament gcode
G21 ; set units to millimeters
G90 ; use absolute coordinates
M83 ; use relative distances for extrusion
;BEFORE_LAYER_CHANGE
;0.2


G1 E-0.80000 F2100.00000
G1 Z0.600 F7200.000
;AFTER_LAYER_CHANGE
;0.2
G1 X95.625 Y86.540 F7200.000
G1 Z0.200 F7200.000
G1 E0.80000 F2100.00000
M204 S1000
G1 F960
G1 X96.589 Y85.580 E0.07431
G1 X97.651 Y84.730 E0.07431
G1 X99.184 Y83.791 E0.09825
G1 X100.843 Y83.075 E0.09873
G1 X102.579 Y82.606 E0.09825
G1 X104.373 Y82.387 E0.09873
G1 X145.009 Y82.372 E2.22019
G1 X147.210 Y82.567 E0.12072
G1 X149.335 Y83.139 E0.12025
G1 X151.336 Y84.076 E0.12072
G1 X153.143 Y85.348 E0.12072
G1 X154.695 Y86.908 E0.12025
G1 X155.957 Y88.722 E0.12072
G1 X156.884 Y90.728 E0.12072
G1 X157.446 Y92.864 E0.12072
G1 X157.628 Y94.987 E0.11642
G1 X157.628 Y115.088 E1.09822
G1 X157.474 Y116.967 E0.10303
G1 X157.220 Y118.187 E0.06809
G1 X156.843 Y119.384 E0.06856
G1 X156.349 Y120.538 E0.06856
G1 X155.748 Y121.630 E0.06809
G1 X155.042 Y122.657 E0.06809
G1 X154.233 Y123.616 E0.06856
G1 X153.332 Y124.489 E0.06856
G1 X152.349 Y125.270 E0.06856
G1 X150.863 Y126.185 E0.09538
G1 X149.264 Y126.887 E0.09538
G1 X147.576 Y127.363 E0.09586
G1 X145.846 Y127.600 E0.09538
G1 X119.974 Y127.628 E1.41358
G1 X118.494 Y127.538 E0.08102
G1 X116.779 Y127.211 E0.09538
G1 X101.695 Y123.188 E0.85291
G1 X100.445 Y122.778 E0.07192
G1 X98.795 Y121.999 E0.09968
G1 X97.268 Y120.984 E0.10016
G1 X95.904 Y119.760 E0.10016
G1 X94.731 Y118.350 E0.10016
G1 X93.857 Y116.941 E0.09059
G1 X93.171 Y115.422 E0.09107
G1 X92.694 Y113.834 E0.09059
G1 X92.428 Y112.189 E0.09107
G1 X92.372 Y111.005 E0.06473
G1 X92.419 Y93.913 E0.93388
G1 X92.608 Y92.566 E0.07431
G1 X92.942 Y91.247 E0.07431
G1 X93.416 Y89.972 E0.07431
G1 X94.028 Y88.748 E0.07479
G1 X94.764 Y87.604 E0.07431
G1 X95.587 Y86.586 E0.07151
G1 X96.098 Y87.006 F7200.000
G1 F960
G1 X96.181 Y86.905 E0.00714
G1 X97.109 Y85.997 E0.07095
G1 X98.138 Y85.191 E0.07142
G1 X99.581 Y84.325 E0.09193
G1 X101.139 Y83.668 E0.09239
G1 X102.766 Y83.239 E0.09193
G1 X104.446 Y83.042 E0.09239
G1 X145.009 Y83.029 E2.21621
G1 X147.100 Y83.214 E0.11474
G1 X149.128 Y83.763 E0.11474
G1 X151.028 Y84.657 E0.11474
G1 X152.749 Y85.875 E0.11521
G1 X154.224 Y87.370 E0.11474
G1 X155.420 Y89.106 E0.11521
G1 X156.292 Y91.026 E0.11521
G1 X156.813 Y93.061 E0.11474
G1 X156.971 Y94.992 E0.10590
G1 X156.971 Y115.077 E1.09734
G1 X156.828 Y116.847 E0.09705
G1 X156.582 Y118.027 E0.06582
G1 X156.219 Y119.176 E0.06582
G1 X155.743 Y120.282 E0.06582
G1 X155.158 Y121.335 E0.06582
G1 X154.469 Y122.324 E0.06582
G1 X153.685 Y123.239 E0.06582
G1 X152.813 Y124.070 E0.06582
G1 X151.862 Y124.809 E0.06582
G1 X150.457 Y125.655 E0.08960
G1 X148.950 Y126.301 E0.08960
G1 X147.368 Y126.735 E0.08960
G1 X145.742 Y126.948 E0.08960
G1 X119.974 Y126.971 E1.40786
G1 X118.542 Y126.882 E0.07841
G1 X116.948 Y126.576 E0.08867
G1 X101.866 Y122.554 E0.85284
G1 X100.689 Y122.168 E0.06769
G1 X99.091 Y121.411 E0.09659
G1 X97.622 Y120.428 E0.09659
G1 X96.314 Y119.238 E0.09659
G1 X95.191 Y117.862 E0.09705
G1 X94.380 Y116.526 E0.08541
G1 X93.754 Y115.103 E0.08494
G1 X93.315 Y113.602 E0.08541
G1 X93.076 Y112.058 E0.08541
G1 X93.077 Y93.924 E0.99074
G1 X93.264 Y92.639 E0.07095
G1 X93.589 Y91.382 E0.07095
G1 X94.048 Y90.167 E0.07095
G1 X94.640 Y89.002 E0.07142
G1 X95.351 Y87.915 E0.07095
G1 X96.059 Y87.052 E0.06100
G1 F5760
G1 X96.181 Y86.905 E-0.06607
G1 F5760
G1 X97.109 Y85.997 E-0.44979
G1 F5760
G1 X97.664 Y85.562 E-0.24414
G1 E-0.04000 F2100.00000
G1 Z0.800 F7200.000
G1 X99.974 Y84.863 F7200.000
G1 Z0.200 F7200.000
G1 E0.80000 F2100.00000
G1 F960
G1 X101.433 Y84.263 E0.08620
G1 X102.953 Y83.873 E0.08574
G1 X104.521 Y83.696 E0.08620
G1 X145.008 Y83.686 E2.21208
G1 X147.000 Y83.864 E0.10928
G1 X148.930 Y84.390 E0.10928
G1 X150.730 Y85.244 E0.10883
G1 X152.358 Y86.405 E0.10928
G1 X153.757 Y87.835 E0.10928
G1 X154.877 Y89.482 E0.10883
G1 X155.695 Y91.307 E0.10928
G1 X156.178 Y93.248 E0.10928
G1 X156.314 Y94.995 E0.09570
G1 X156.314 Y115.066 E1.09666
G1 X156.182 Y116.722 E0.09072
G1 X155.947 Y117.860 E0.06354
G1 X155.598 Y118.961 E0.06308
G1 X155.139 Y120.021 E0.06308
G1 X154.575 Y121.028 E0.06308
G1 X153.905 Y121.979 E0.06354
G1 X153.148 Y122.850 E0.06308
G1 X152.305 Y123.640 E0.06308
G1 X151.380 Y124.344 E0.06354
G1 X150.063 Y125.118 E0.08348
G1 X148.653 Y125.708 E0.08348
G1 X147.177 Y126.103 E0.08348
G1 X145.653 Y126.295 E0.08393
G1 X119.975 Y126.314 E1.40296
G1 X118.599 Y126.227 E0.07532
G1 X117.107 Y125.938 E0.08302
G1 X102.045 Y121.921 E0.85173
G1 X100.931 Y121.557 E0.06399
G1 X99.387 Y120.823 E0.09344
G1 X97.977 Y119.870 E0.09299
G1 X96.726 Y118.716 E0.09299
G1 X95.657 Y117.381 E0.09344
G1 X94.912 Y116.124 E0.07985
G1 X94.336 Y114.780 E0.07985
G1 X93.938 Y113.374 E0.07985
G1 X93.724 Y111.928 E0.07985
G1 X93.735 Y93.946 E0.98248
G1 X93.919 Y92.714 E0.06807
G1 X94.235 Y91.517 E0.06762
G1 X94.683 Y90.355 E0.06807
G1 X95.252 Y89.256 E0.06762
G1 X95.938 Y88.226 E0.06762
G1 X96.738 Y87.270 E0.06807
G1 X97.638 Y86.409 E0.06807
G1 X98.620 Y85.656 E0.06762
G1 X99.923 Y84.894 E0.08246
G1 X100.251 Y85.468 F7200.000
G1 F960
G1 X100.357 Y85.407 E0.00669
G1 X101.711 Y84.863 E0.07969
G1 X103.126 Y84.509 E0.07969
G1 X104.584 Y84.351 E0.08013
G1 X145.008 Y84.343 E2.20864
G1 X146.893 Y84.512 E0.10342
G1 X148.711 Y85.010 E0.10298
G1 X150.420 Y85.824 E0.10342
G1 X151.958 Y86.928 E0.10342
G1 X153.276 Y88.286 E0.10342
G1 X154.333 Y89.856 E0.10342
G1 X155.096 Y91.588 E0.10342
G1 X155.541 Y93.428 E0.10342
G1 X155.657 Y94.939 E0.08277
G1 X155.657 Y115.000 E1.09609
G1 X155.536 Y116.599 E0.08761
G1 X155.314 Y117.681 E0.06034
G1 X154.979 Y118.741 E0.06078
G1 X154.538 Y119.754 E0.06034
G1 X153.990 Y120.722 E0.06078
G1 X153.350 Y121.622 E0.06034
G1 X152.614 Y122.457 E0.06078
G1 X151.801 Y123.204 E0.06034
G1 X150.909 Y123.869 E0.06078
G1 X149.672 Y124.579 E0.07794
G1 X148.358 Y125.114 E0.07750
G1 X146.978 Y125.472 E0.07794
G1 X145.561 Y125.642 E0.07794
G1 X119.976 Y125.657 E1.39790
G1 X118.657 Y125.572 E0.07222
G1 X117.272 Y125.302 E0.07706
G1 X102.215 Y121.287 E0.85143
G1 X101.173 Y120.946 E0.05990
G1 X99.696 Y120.243 E0.08936
G1 X98.338 Y119.318 E0.08980
G1 X97.143 Y118.200 E0.08936
G1 X96.130 Y116.907 E0.08980
G1 X95.449 Y115.727 E0.07442
G1 X94.924 Y114.470 E0.07442
G1 X94.563 Y113.157 E0.07442
G1 X94.374 Y111.808 E0.07442
G1 X94.392 Y93.977 E0.97420
G1 X94.570 Y92.814 E0.06430
G1 X94.877 Y91.669 E0.06474
G1 X95.306 Y90.573 E0.06430
G1 X95.857 Y89.525 E0.06474
G1 X96.517 Y88.550 E0.06430
G1 X97.285 Y87.648 E0.06474
G1 X98.143 Y86.842 E0.06430
G1 X99.091 Y86.131 E0.06474
G1 X100.199 Y85.498 E0.06973
G1 F5760
G1 X100.357 Y85.407 E-0.06317
G1 F5760
G1 X101.711 Y84.863 E-0.50521
G1 F5760
G1 X102.247 Y84.729 E-0.19163
G1 E-0.04000 F2100.00000
G1 Z0.800 F7200.000
G1 X106.007 Y96.007 F7200.000
G1 Z0.200 F7200.000
G1 E0.80000 F2100.00000
G1 F960
G1 X143.993 Y96.007 E2.07541
G1 X143.993 Y113.993 E0.98268
G1 X121.007 Y113.993 E1.25586
G1 X121.007 Y109.993 E0.21855
G1 X106.007 Y109.993 E0.81955
G1 X106.007 Y96.067 E0.76086
G1 F5760
G1 X108.201 Y96.064 E-0.76000
G1 E-0.04000 F2100.00000
G1 Z0.800 F7200.000
G1 X120.350 Y110.650 F7200.000
G1 Z0.200 F7200.000
G1 E0.80000 F2100.00000
G1 F960
G1 X105.350 Y110.650 E0.81955
G1 X105.350 Y95.350 E0.83594
G1 X144.650 Y95.350 E2.14721
G1 X144.650 Y114.650 E1.05448
G1 X120.350 Y114.650 E1.32766
G1 X120.350 Y110.710 E0.21527
G1 X120.169 Y110.293 F7200.000
G1 X120.600 Y109.796 F7200.000
G1 F960
G1 X107.304 Y96.500 E1.03148
G1 X106.500 Y96.500 E0.04411
G1 X106.500 Y96.629 E0.00707
G1 X119.371 Y109.500 E0.99854
G1 X118.438 Y109.500 E0.05118
G1 X106.500 Y97.562 E0.92616
G1 X106.500 Y98.495 E0.05118
G1 X117.505 Y109.500 E0.85378
G1 X116.572 Y109.500 E0.05118
G1 X106.500 Y99.428 E0.78140
G1 X106.500 Y100.361 E0.05118
G1 X115.639 Y109.500 E0.70902
G1 X114.706 Y109.500 E0.05118
G1 X106.500 Y101.294 E0.63664
G1 X106.500 Y102.227 E0.05118
G1 X113.773 Y109.500 E0.56426
G1 X112.840 Y109.500 E0.05118
G1 X106.500 Y103.160 E0.49188
G1 X106.500 Y104.093 E0.05118
G1 X111.907 Y109.500 E0.41950
G1 X110.974 Y109.500 E0.05118
G1 X106.500 Y105.026 E0.34712
G1 X106.500 Y105.959 E0.05118
G1 X110.041 Y109.500 E0.27474
G1 X109.108 Y109.500 E0.05118
G1 X106.500 Y106.892 E0.20235
G1 X106.500 Y107.825 E0.05118
G1 X108.175 Y109.500 E0.12997
G1 X107.242 Y109.500 E0.05118
G1 X106.204 Y108.462 E0.08053
G1 F5760
G1 X107.242 Y109.500 E-0.50847
G1 F5760
G1 X107.968 Y109.500 E-0.25153
G1 E-0.04000 F2100.00000
G1 Z0.800 F7200.000
G1 X121.801 Y113.796 F7200.000
G1 Z0.200 F7200.000
G1 E0.80000 F2100.00000
G1 F960
G1 X121.500 Y113.495 E0.02335
G1 X121.500 Y112.562 E0.05118
G1 X122.438 Y113.500 E0.07279
G1 X123.371 Y113.500 E0.05118
G1 X121.500 Y111.629 E0.14517
G1 X121.500 Y110.696 E0.05118
G1 X124.304 Y113.500 E0.21755
G1 X125.237 Y113.500 E0.05118
G1 X108.237 Y96.500 E1.31886
G1 X109.170 Y96.500 E0.05118
G1 X126.170 Y113.500 E1.31886
G1 X127.103 Y113.500 E0.05118
G1 X110.103 Y96.500 E1.31886
G1 X111.036 Y96.500 E0.05118
G1 X128.036 Y113.500 E1.31886
G1 X128.969 Y113.500 E0.05118
G1 X111.969 Y96.500 E1.31886
G1 X112.902 Y96.500 E0.05118
G1 X129.902 Y113.500 E1.31886
G1 X130.835 Y113.500 E0.05118
G1 X113.835 Y96.500 E1.31886
G1 X114.768 Y96.500 E0.05118
G1 X131.768 Y113.500 E1.31886
G1 X132.701 Y113.500 E0.05118
G1 X115.701 Y96.500 E1.31886
G1 X116.634 Y96.500 E0.05118
G1 X133.634 Y113.500 E1.31886
G1 X134.567 Y113.500 E0.05118
G1 X117.567 Y96.500 E1.31886
G1 X118.500 Y96.500 E0.05118
G1 X135.500 Y113.500 E1.31886
G1 X136.433 Y113.500 E0.05118
G1 X119.433 Y96.500 E1.31886
G1 X120.366 Y96.500 E0.05118
G1 X137.366 Y113.500 E1.31886
G1 X138.299 Y113.500 E0.05118
G1 X121.299 Y96.500 E1.31886
G1 X122.232 Y96.500 E0.05118
G1 X139.232 Y113.500 E1.31886
G1 X140.165 Y113.500 E0.05118
G1 X123.165 Y96.500 E1.31886
G1 X124.098 Y96.500 E0.05118
G1 X141.098 Y113.500 E1.31886
G1 X142.031 Y113.500 E0.05118
G1 X125.031 Y96.500 E1.31886
G1 X125.964 Y96.500 E0.05118
G1 X142.964 Y113.500 E1.31886
G1 X143.500 Y113.500 E0.02941
G1 X143.500 Y113.103 E0.02177
G1 X126.897 Y96.500 E1.28807
G1 X127.830 Y96.500 E0.05118
G1 X143.500 Y112.170 E1.21569
G1 X143.500 Y111.237 E0.05118
G1 X128.763 Y96.500 E1.14331
G1 X129.696 Y96.500 E0.05118
G1 X143.500 Y110.304 E1.07093
G1 X143.500 Y109.371 E0.05118
G1 X130.629 Y96.500 E0.99855
G1 X131.562 Y96.500 E0.05118
G1 X143.500 Y108.438 E0.92617
G1 X143.500 Y107.505 E0.05118
G1 X132.495 Y96.500 E0.85379
G1 X133.428 Y96.500 E0.05118
G1 X143.500 Y106.572 E0.78141
G1 X143.500 Y105.639 E0.05118
G1 X134.361 Y96.500 E0.70902
G1 X135.294 Y96.500 E0.05118
G1 X143.500 Y104.706 E0.63664
G1 X143.500 Y103.773 E0.05118
G1 X136.227 Y96.500 E0.56426
G1 X137.160 Y96.500 E0.05118
G1 X143.500 Y102.840 E0.49188
G1 X143.500 Y101.907 E0.05118
G1 X138.093 Y96.500 E0.41950
G1 X139.026 Y96.500 E0.05118
G1 X143.500 Y100.974 E0.34712
G1 X143.500 Y100.041 E0.05118
G1 X139.959 Y96.500 E0.27474
G1 X140.892 Y96.500 E0.05118
G1 X143.500 Y99.108 E0.20236
G1 X143.500 Y98.175 E0.05118
G1 X141.825 Y96.500 E0.12998
G1 X142.758 Y96.500 E0.05118
G1 X143.796 Y97.538 E0.08054
;BEFORE_LAYER_CHANGE
;0.4


G1 F5760
G1 X142.758 Y96.500 E-0.50851
G1 F5760
G1 X142.032 Y96.500 E-0.25149
G1 E-0.04000 F2100.00000
G1 Z0.800 F7200.000
;AFTER_LAYER_CHANGE
;0.4
M140 S110 ; set bed temperature
G1 X120.632 Y110.368 F7200.000
G1 Z0.400 F7200.000
G1 E0.80000 F2100.00000
M204 S800
G1 F3000
G1 X105.632 Y110.368 E0.50773
G1 X105.632 Y95.632 E0.49879
G1 X144.368 Y95.632 E1.31116
G1 X144.368 Y114.368 E0.63419
G1 X120.632 Y114.368 E0.80343
G1 X120.632 Y110.428 E0.13336
M204 S1000
G1 X120.225 Y110.775 F7200.000
M204 S800
G1 F2400
G1 X105.225 Y110.775 E0.50773
G1 X105.225 Y95.225 E0.52635
G1 X144.775 Y95.225 E1.33872
G1 X144.775 Y114.775 E0.66174
G1 X120.225 Y114.775 E0.83099
G1 X120.225 Y110.835 E0.13336
M204 S1000
G1 X120.044 Y110.418 F7200.000
G1 F5760
G1 X118.031 Y110.826 E-0.76000
G1 E-0.04000 F2100.00000
G1 Z1.000 F7200.000
G1 X106.578 Y95.754 F7200.000
G1 Z0.400 F7200.000
G1 E0.80000 F2100.00000
M204 S2000
G1 F3000
G1 X105.937 Y96.395 E0.03071
G1 X105.937 Y96.971 E0.01953
G1 X106.971 Y95.937 E0.04956
G1 X107.548 Y95.937 E0.01953
G1 X105.937 Y97.548 E0.07718
G1 X105.937 Y98.124 E0.01953
G1 X108.124 Y95.937 E0.10481
G1 X108.701 Y95.937 E0.01953
G1 X105.937 Y98.701 E0.13244
G1 X105.937 Y99.277 E0.01953
G1 X109.277 Y95.937 E0.16006
G1 X109.853 Y95.937 E0.01953
G1 X105.937 Y99.853 E0.18769
G1 X105.937 Y100.430 E0.01953
G1 X110.430 Y95.937 E0.21532
G1 X111.006 Y95.937 E0.01953
G1 X105.937 Y101.006 E0.24294
G1 X105.937 Y101.583 E0.01953
G1 X111.583 Y95.937 E0.27057
G1 X112.159 Y95.937 E0.01953
G1 X105.937 Y102.159 E0.29820
G1 X105.937 Y102.735 E0.01953
G1 X112.735 Y95.937 E0.32582
G1 X113.312 Y95.937 E0.01953
G1 X105.937 Y103.312 E0.35345
G1 X105.937 Y103.888 E0.01953
G1 X113.888 Y95.937 E0.38108
G1 X114.465 Y95.937 E0.01953
G1 X105.937 Y104.465 E0.40870
G1 X105.937 Y105.041 E0.01953
G1 X115.041 Y95.937 E0.43633
G1 X115.618 Y95.937 E0.01953
G1 X105.937 Y105.618 E0.46396
G1 X105.937 Y106.194 E0.01953
G1 X116.194 Y95.937 E0.49158
G1 X116.770 Y95.937 E0.01953
G1 X105.937 Y106.770 E0.51921
G1 X105.937 Y107.347 E0.01953
G1 X117.347 Y95.937 E0.54684
G1 X117.923 Y95.937 E0.01953
G1 X105.937 Y107.923 E0.57446
G1 X105.937 Y108.500 E0.01953
G1 X118.500 Y95.937 E0.60209
G1 X119.076 Y95.937 E0.01953
G1 X105.937 Y109.076 E0.62971
G1 X105.937 Y109.652 E0.01953
G1 X119.652 Y95.937 E0.65734
G1 X120.229 Y95.937 E0.01953
G1 X106.104 Y110.063 E0.67700
G1 X106.680 Y110.063 E0.01953
G1 X120.805 Y95.937 E0.67700
G1 X121.382 Y95.937 E0.01953
G1 X107.256 Y110.063 E0.67700
G1 X107.833 Y110.063 E0.01953
G1 X121.958 Y95.937 E0.67700
G1 X122.534 Y95.937 E0.01953
G1 X108.409 Y110.063 E0.67700
G1 X108.986 Y110.063 E0.01953
G1 X123.111 Y95.937 E0.67700
G1 X123.687 Y95.937 E0.01953
G1 X109.562 Y110.063 E0.67700
G1 X110.138 Y110.063 E0.01953
G1 X124.264 Y95.937 E0.67700
G1 X124.840 Y95.937 E0.01953
G1 X110.715 Y110.063 E0.67700
G1 X111.291 Y110.063 E0.01953
G1 X125.416 Y95.937 E0.67700
G1 X125.993 Y95.937 E0.01953
G1 X111.868 Y110.063 E0.67700
G1 X112.444 Y110.063 E0.01953
G1 X126.569 Y95.937 E0.67700
G1 X127.146 Y95.937 E0.01953
G1 X113.020 Y110.063 E0.67700
G1 X113.597 Y110.063 E0.01953
G1 X127.722 Y95.937 E0.67700
G1 X128.299 Y95.937 E0.01953
G1 X114.173 Y110.063 E0.67700
G1 X114.750 Y110.063 E0.01953
G1 X128.875 Y95.937 E0.67700
G1 X129.451 Y95.937 E0.01953
G1 X115.326 Y110.063 E0.67700
G1 X115.902 Y110.063 E0.01953
G1 X130.028 Y95.937 E0.67700
G1 X130.604 Y95.937 E0.01953
G1 X116.479 Y110.063 E0.67700
G1 X117.055 Y110.063 E0.01953
G1 X131.181 Y95.937 E0.67700
G1 X131.757 Y95.937 E0.01953
G1 X117.632 Y110.063 E0.67700
G1 X118.208 Y110.063 E0.01953
G1 X132.333 Y95.937 E0.67700
G1 X132.910 Y95.937 E0.01953
G1 X118.785 Y110.063 E0.67700
G1 X119.361 Y110.063 E0.01953
G1 X133.486 Y95.937 E0.67700
G1 X134.063 Y95.937 E0.01953
G1 X119.937 Y110.063 E0.67700
G1 X120.514 Y110.063 E0.01953
G1 X134.639 Y95.937 E0.67700
G1 X135.215 Y95.937 E0.01953
G1 X120.937 Y110.215 E0.68433
G1 X120.937 Y110.792 E0.01953
G1 X135.792 Y95.937 E0.71195
G1 X136.368 Y95.937 E0.01953
G1 X120.937 Y111.368 E0.73958
G1 X120.937 Y111.945 E0.01953
G1 X136.945 Y95.937 E0.76721
G1 X137.521 Y95.937 E0.01953
G1 X120.937 Y112.521 E0.79483
G1 X120.937 Y113.097 E0.01953
G1 X138.097 Y95.937 E0.82246
G1 X138.674 Y95.937 E0.01953
G1 X120.937 Y113.674 E0.85009
G1 X120.937 Y114.063 E0.01317
