; generated by Slic3r Prusa Edition 1.38.6-prusa3d-win64 on 2018-03-05 at 10:36:11

; 

; external perimeters extrusion width = 0.45mm
; perimeters extrusion width = 0.45mm
; infill extrusion width = 0.45mm
; solid infill extrusion width = 0.45mm
; top infill extrusion width = 0.40mm
; first layer extrusion width = 0.50mm

; external perimeters extrusion width = 0.45mm
; perimeters extrusion width = 0.45mm
; infill extrusion width = 0.45mm
; solid infill extrusion width = 0.45mm
; top infill extrusion width = 0.40mm
; first layer extrusion width = 0.50mm

M107
M115 U3.1.0 ; tell printer latest fw version
M83  ; extruder relative mode
M104 S210 ; set extruder temp
M140 S60 ; set bed temp
M190 S60 ; wait for bed temp
M109 S210 ; wait for extruder temp
G28 W ; home all without mesh bed level
G80 ; mesh bed leveling
G1 Y-3.0 F1000.0 ; go outside print area
G92 E0.0
G1 X60.0 E9.0  F1000.0 ; intro line
G1 X100.0 E12.5  F1000.0 ; intro line
G92 E0.0
M900 K30; Filament gcode
G21 ; set units to millimeters
G90 ; use absolute coordinates
M83 ; use relative distances for extrusion
;BEFORE_LAYER_CHANGE
;0.2


G1 E-0.80000 F2100.00000
G1 Z0.600 F7200.000
;AFTER_LAYER_CHANGE
;0.2
G1 X103.108 Y92.784 F7200.000
G1 Z0.200 F7200.000
G1 E0.80000 F2100.00000
M204 S1000
G1 F1800
G1 X103.754 Y92.366 E0.02925
G1 X104.350 Y92.159 E0.02400
G1 X104.981 Y92.086 E0.02416
G1 X145.004 Y92.086 E1.52112
G1 X145.553 Y92.139 E0.02097
G1 X146.083 Y92.294 E0.02097
G1 X146.573 Y92.547 E0.02097
G1 X147.010 Y92.890 E0.02113
G1 X147.372 Y93.307 E0.02097
G1 X147.650 Y93.788 E0.02113
G1 X147.831 Y94.309 E0.02097
G1 X147.911 Y94.859 E0.02113
G1 X147.907 Y115.211 E0.77348
G1 X147.750 Y115.964 E0.02925
G1 X147.404 Y116.647 E0.02909
G1 X146.889 Y117.219 E0.02925
G1 X146.246 Y117.634 E0.02909
G1 X145.650 Y117.841 E0.02400
G1 X145.027 Y117.914 E0.02384
G1 X119.647 Y117.893 E0.96461
G1 X104.095 Y113.770 E0.61145
G1 X103.553 Y113.529 E0.02256
G1 X103.073 Y113.187 E0.02240
G1 X102.670 Y112.751 E0.02256
G1 X102.366 Y112.246 E0.02240
G1 X102.162 Y111.662 E0.02352
G1 X102.086 Y111.048 E0.02352
G1 X102.093 Y94.798 E0.61760
G1 X102.247 Y94.044 E0.02925
G1 X102.593 Y93.357 E0.02925
G1 X103.067 Y92.829 E0.02697
G1 X103.405 Y93.133 F7200.000
G1 F1800
G1 X103.969 Y92.770 E0.02551
G1 X104.467 Y92.601 E0.01998
G1 X104.986 Y92.543 E0.01983
G1 X145.004 Y92.543 E1.52094
G1 X145.918 Y92.721 E0.03540
G1 X146.703 Y93.229 E0.03555
G1 X147.240 Y93.990 E0.03540
G1 X147.455 Y94.897 E0.03540
G1 X147.452 Y115.155 E0.76993
G1 X147.324 Y115.798 E0.02495
G1 X147.027 Y116.388 E0.02509
G1 X146.584 Y116.878 E0.02509
G1 X146.031 Y117.230 E0.02495
G1 X145.536 Y117.398 E0.01983
G1 X145.018 Y117.457 E0.01983
G1 X119.706 Y117.439 E0.96200
G1 X104.252 Y113.340 E0.60769
G1 X103.784 Y113.135 E0.01939
G1 X103.373 Y112.841 E0.01925
G1 X103.027 Y112.465 E0.01939
G1 X102.769 Y112.029 E0.01925
G1 X102.604 Y111.543 E0.01954
G1 X102.543 Y111.032 E0.01954
G1 X102.548 Y94.849 E0.61506
G1 X102.676 Y94.202 E0.02509
G1 X102.971 Y93.615 E0.02495
G1 X103.365 Y93.178 E0.02238
G1 F5760
G1 X103.969 Y92.770 E-0.25259
G1 F5760
G1 X104.467 Y92.601 E-0.18207
G1 F5760
G1 X104.986 Y92.543 E-0.18073
G1 F5760
G1 X105.403 Y92.543 E-0.14461
G1 E-0.04000 F2100.00000
G1 Z0.800 F7200.000
G1 X105.707 Y95.707 F7200.000
G1 Z0.200 F7200.000
G1 E0.80000 F2100.00000
G1 F1800
G1 X144.293 Y95.707 E1.46651
G1 X144.293 Y114.293 E0.70638
G1 X120.707 Y114.293 E0.89641
G1 X120.707 Y110.293 E0.15203
G1 X105.707 Y110.293 E0.57009
G1 X105.707 Y95.767 E0.55207
G1 F5760
G1 X107.901 Y95.764 E-0.76000
G1 E-0.04000 F2100.00000
G1 Z0.800 F7200.000
G1 X120.250 Y110.750 F7200.000
G1 Z0.200 F7200.000
G1 E0.80000 F2100.00000
G1 F1800
G1 X105.250 Y110.750 E0.57009
G1 X105.250 Y95.250 E0.58910
G1 X144.750 Y95.250 E1.50125
G1 X144.750 Y114.750 E0.74112
G1 X120.250 Y114.750 E0.93116
G1 X120.250 Y110.810 E0.14974
G1 X120.069 Y110.393 F7200.000
G1 F5760
G1 X118.056 Y110.801 E-0.76000
G1 E-0.04000 F2100.00000
G1 Z0.800 F7200.000
G1 X120.844 Y113.162 F7200.000
G1 Z0.200 F7200.000
G1 E0.80000 F2100.00000
G1 F1800
G1 X121.633 Y113.950 E0.04266
G1 X122.283 Y113.950 E0.02490
G1 X121.050 Y112.717 E0.06675
G1 X121.050 Y112.066 E0.02490
G1 X122.934 Y113.950 E0.10197
G1 X123.585 Y113.950 E0.02490
G1 X121.050 Y111.415 E0.13718
G1 X121.050 Y110.764 E0.02490
G1 X124.441 Y114.156 E0.18353
G1 F5760
G1 X122.890 Y112.604 E-0.76000
G1 E-0.04000 F2100.00000
G1 Z0.800 F7200.000
G1 X105.844 Y109.225 F7200.000
G1 Z0.200 F7200.000
G1 E0.80000 F2100.00000
G1 F1800
G1 X106.569 Y109.950 E0.03922
G1 X107.220 Y109.950 E0.02490
G1 X106.050 Y108.780 E0.06331
G1 X106.050 Y108.129 E0.02490
G1 X107.871 Y109.950 E0.09853
G1 X108.521 Y109.950 E0.02490
G1 X106.050 Y107.479 E0.13374
G1 X106.050 Y106.828 E0.02490
G1 X109.172 Y109.950 E0.16896
G1 X109.823 Y109.950 E0.02490
G1 X106.050 Y106.177 E0.20418
G1 X106.050 Y105.526 E0.02490
G1 X110.474 Y109.950 E0.23939
G1 X111.125 Y109.950 E0.02490
G1 X106.050 Y104.875 E0.27461
G1 X106.050 Y104.225 E0.02490
G1 X111.775 Y109.950 E0.30983
G1 X112.426 Y109.950 E0.02490
G1 X106.050 Y103.574 E0.34505
G1 X106.050 Y102.923 E0.02490
G1 X113.077 Y109.950 E0.38026
G1 X113.728 Y109.950 E0.02490
G1 X106.050 Y102.272 E0.41548
G1 X106.050 Y101.621 E0.02490
G1 X114.379 Y109.950 E0.45070
G1 X115.029 Y109.950 E0.02490
G1 X106.050 Y100.971 E0.48592
G1 X106.050 Y100.320 E0.02490
G1 X115.680 Y109.950 E0.52113
G1 X116.331 Y109.950 E0.02490
G1 X106.050 Y99.669 E0.55635
G1 X106.050 Y99.018 E0.02490
G1 X116.982 Y109.950 E0.59157
G1 X117.633 Y109.950 E0.02490
G1 X106.050 Y98.367 E0.62679
G1 X106.050 Y97.717 E0.02490
G1 X118.283 Y109.950 E0.66200
G1 X118.934 Y109.950 E0.02490
G1 X106.050 Y97.066 E0.69722
G1 X106.050 Y96.415 E0.02490
G1 X119.585 Y109.950 E0.73244
G1 X120.236 Y109.950 E0.02490
G1 X106.335 Y96.050 E0.75220
G1 X106.986 Y96.050 E0.02490
G1 X124.887 Y113.950 E0.96866
G1 X125.537 Y113.950 E0.02490
G1 X107.637 Y96.050 E0.96866
G1 X108.288 Y96.050 E0.02490
G1 X126.188 Y113.950 E0.96866
G1 X126.839 Y113.950 E0.02490
G1 X108.939 Y96.050 E0.96866
G1 X109.589 Y96.050 E0.02490
G1 X127.490 Y113.950 E0.96866
G1 X128.141 Y113.950 E0.02490
G1 X110.240 Y96.050 E0.96866
G1 X110.891 Y96.050 E0.02490
G1 X128.791 Y113.950 E0.96866
G1 X129.442 Y113.950 E0.02490
G1 X111.542 Y96.050 E0.96866
G1 X112.193 Y96.050 E0.02490
G1 X130.093 Y113.950 E0.96866
G1 X130.744 Y113.950 E0.02490
G1 X112.843 Y96.050 E0.96866
G1 X113.494 Y96.050 E0.02490
G1 X131.395 Y113.950 E0.96866
G1 X132.045 Y113.950 E0.02490
G1 X114.145 Y96.050 E0.96866
G1 X114.796 Y96.050 E0.02490
G1 X132.696 Y113.950 E0.96866
G1 X133.347 Y113.950 E0.02490
G1 X115.447 Y96.050 E0.96866
G1 X116.097 Y96.050 E0.02490
G1 X133.998 Y113.950 E0.96866
G1 X134.649 Y113.950 E0.02490
G1 X116.748 Y96.050 E0.96866
G1 X117.399 Y96.050 E0.02490
G1 X135.299 Y113.950 E0.96866
G1 X135.950 Y113.950 E0.02490
G1 X118.050 Y96.050 E0.96866
G1 X118.701 Y96.050 E0.02490
G1 X136.601 Y113.950 E0.96866
G1 X137.252 Y113.950 E0.02490
G1 X119.351 Y96.050 E0.96866
G1 X120.002 Y96.050 E0.02490
G1 X137.902 Y113.950 E0.96866
G1 X138.553 Y113.950 E0.02490
G1 X120.653 Y96.050 E0.96866
G1 X121.304 Y96.050 E0.02490
G1 X139.204 Y113.950 E0.96866
G1 X139.855 Y113.950 E0.02490
G1 X121.955 Y96.050 E0.96866
G1 X122.605 Y96.050 E0.02490
G1 X140.506 Y113.950 E0.96866
G1 X141.156 Y113.950 E0.02490
G1 X123.256 Y96.050 E0.96866
G1 X123.907 Y96.050 E0.02490
G1 X141.807 Y113.950 E0.96866
G1 X142.458 Y113.950 E0.02490
G1 X124.558 Y96.050 E0.96866
G1 X125.209 Y96.050 E0.02490
G1 X143.109 Y113.950 E0.96866
G1 X143.760 Y113.950 E0.02490
G1 X125.859 Y96.050 E0.96866
G1 X126.510 Y96.050 E0.02490
G1 X143.950 Y113.490 E0.94375
G1 X143.950 Y112.839 E0.02490
G1 X127.161 Y96.050 E0.90853
G1 X127.812 Y96.050 E0.02490
G1 X143.950 Y112.188 E0.87331
G1 X143.950 Y111.537 E0.02490
G1 X128.463 Y96.050 E0.83810
G1 X129.113 Y96.050 E0.02490
G1 X143.950 Y110.887 E0.80288
G1 X143.950 Y110.236 E0.02490
G1 X129.764 Y96.050 E0.76766
G1 X130.415 Y96.050 E0.02490
G1 X143.950 Y109.585 E0.73244
G1 X143.950 Y108.934 E0.02490
G1 X131.066 Y96.050 E0.69723
G1 X131.717 Y96.050 E0.02490
G1 X143.950 Y108.283 E0.66201
G1 X143.950 Y107.633 E0.02490
G1 X132.367 Y96.050 E0.62679
G1 X133.018 Y96.050 E0.02490
G1 X143.950 Y106.982 E0.59157
G1 X143.950 Y106.331 E0.02490
G1 X133.669 Y96.050 E0.55636
G1 X134.320 Y96.050 E0.02490
G1 X143.950 Y105.680 E0.52114
G1 X143.950 Y105.029 E0.02490
G1 X134.971 Y96.050 E0.48592
G1 X135.621 Y96.050 E0.02490
G1 X143.950 Y104.379 E0.45070
G1 X143.950 Y103.728 E0.02490
G1 X136.272 Y96.050 E0.41549
G1 X136.923 Y96.050 E0.02490
G1 X143.950 Y103.077 E0.38027
G1 X143.950 Y102.426 E0.02490
G1 X137.574 Y96.050 E0.34505
G1 X138.225 Y96.050 E0.02490
G1 X143.950 Y101.775 E0.30983
G1 X143.950 Y101.125 E0.02490
G1 X138.875 Y96.050 E0.27462
G1 X139.526 Y96.050 E0.02490
G1 X143.950 Y100.474 E0.23940
G1 X143.950 Y99.823 E0.02490
G1 X140.177 Y96.050 E0.20418
G1 X140.828 Y96.050 E0.02490
G1 X143.950 Y99.172 E0.16897
G1 X143.950 Y98.521 E0.02490
G1 X141.479 Y96.050 E0.13375
G1 X142.129 Y96.050 E0.02490
G1 X143.950 Y97.871 E0.09853
G1 X143.950 Y97.220 E0.02490
G1 X142.780 Y96.050 E0.06331
G1 X143.431 Y96.050 E0.02490
G1 X144.156 Y96.775 E0.03923
M106 S239.7
;BEFORE_LAYER_CHANGE
;0.4


G1 F5760
G1 X143.431 Y96.050 E-0.35506
G1 F5760
G1 X142.780 Y96.050 E-0.22541
G1 F5760
G1 X143.147 Y96.416 E-0.17953
G1 E-0.04000 F2100.00000
G1 Z0.800 F7200.000
;AFTER_LAYER_CHANGE
;0.4
M104 S195 ; set temperature
G1 X147.831 Y94.309 F7200.000
G1 Z0.400 F7200.000
G1 E0.80000 F2100.00000
G1 F3000
G1 X147.911 Y94.859 E0.02113
G1 X147.907 Y115.211 E0.77348
G1 X147.750 Y115.964 E0.02925
G1 X147.404 Y116.647 E0.02909
G1 X146.889 Y117.219 E0.02925
G1 X146.246 Y117.634 E0.02909
G1 X145.650 Y117.841 E0.02400
G1 X145.027 Y117.914 E0.02384
G1 X119.647 Y117.893 E0.96461
G1 X104.095 Y113.770 E0.61145
G1 X103.553 Y113.529 E0.02256
G1 X103.073 Y113.187 E0.02240
G1 X102.670 Y112.751 E0.02256
G1 X102.366 Y112.246 E0.02240
G1 X102.162 Y111.662 E0.02352
G1 X102.086 Y111.048 E0.02352
G1 X102.093 Y94.798 E0.61760
G1 X102.247 Y94.044 E0.02925
G1 X102.593 Y93.357 E0.02925
G1 X103.108 Y92.784 E0.02925
G1 X103.754 Y92.366 E0.02925
G1 X104.350 Y92.159 E0.02400
G1 X104.981 Y92.086 E0.02416
G1 X145.004 Y92.086 E1.52112
G1 X145.553 Y92.139 E0.02097
G1 X146.083 Y92.294 E0.02097
G1 X146.573 Y92.547 E0.02097
G1 X147.010 Y92.890 E0.02113
G1 X147.372 Y93.307 E0.02097
G1 X147.650 Y93.788 E0.02113
G1 X147.811 Y94.252 E0.01869
G1 X147.240 Y93.990 F7200.000
G1 F3000
G1 X147.455 Y94.897 E0.03540
G1 X147.452 Y115.155 E0.76993
G1 X147.324 Y115.798 E0.02495
G1 X147.027 Y116.388 E0.02509
G1 X146.584 Y116.878 E0.02509
G1 X146.031 Y117.230 E0.02495
G1 X145.536 Y117.398 E0.01983
G1 X145.018 Y117.457 E0.01983
G1 X119.706 Y117.439 E0.96200
G1 X104.252 Y113.340 E0.60769
G1 X103.784 Y113.135 E0.01939
G1 X103.373 Y112.841 E0.01925
G1 X103.027 Y112.465 E0.01939
G1 X102.769 Y112.029 E0.01925
G1 X102.604 Y111.543 E0.01954
G1 X102.543 Y111.032 E0.01954
G1 X102.548 Y94.849 E0.61506
G1 X102.676 Y94.202 E0.02509
G1 X102.971 Y93.615 E0.02495
G1 X103.413 Y93.124 E0.02509
G1 X103.969 Y92.770 E0.02509
G1 X104.467 Y92.601 E0.01998
G1 X104.986 Y92.543 E0.01983
G1 X145.004 Y92.543 E1.52094
G1 X145.918 Y92.721 E0.03540
G1 X146.703 Y93.229 E0.03555
G1 X147.206 Y93.941 E0.03312
G1 F5760
G1 X147.455 Y94.897 E-0.34200
G1 F5760
G1 X147.455 Y96.104 E-0.41800
G1 E-0.04000 F2100.00000
G1 Z1.000 F7200.000
G1 X144.368 Y95.632 F7200.000
G1 Z0.400 F7200.000
G1 E0.80000 F2100.00000
M204 S800
G1 F3000
G1 X144.368 Y114.368 E0.63419
G1 X120.632 Y114.368 E0.80343
G1 X120.632 Y110.368 E0.13540
G1 X105.632 Y110.368 E0.50773
G1 X105.632 Y95.632 E0.49879
G1 X144.308 Y95.632 E1.30913
M204 S1000
G1 F5760
G1 X144.315 Y97.826 E-0.76000
G1 E-0.04000 F2100.00000
G1 Z1.000 F7200.000
G1 X120.225 Y110.775 F7200.000
G1 Z0.400 F7200.000
G1 E0.80000 F2100.00000
M204 S800
G1 F2400
G1 X105.225 Y110.775 E0.50773
G1 X105.225 Y95.225 E0.52635
G1 X144.775 Y95.225 E1.33872
G1 X144.775 Y114.775 E0.66174
G1 X120.225 Y114.775 E0.83099
G1 X120.225 Y110.835 E0.13336
M204 S1000
G1 X120.044 Y110.418 F7200.000
G1 F5760
G1 X118.031 Y110.826 E-0.76000
G1 E-0.04000 F2100.00000
G1 Z1.000 F7200.000
G1 X106.578 Y95.754 F7200.000
G1 Z0.400 F7200.000
G1 E0.80000 F2100.00000
M204 S2000
G1 F3000
G1 X105.937 Y96.395 E0.03071
G1 X105.937 Y96.971 E0.01954
G1 X106.971 Y95.937 E0.04955
G1 X107.548 Y95.937 E0.01953
G1 X105.937 Y97.548 E0.07718
G1 X105.937 Y98.124 E0.01953
G1 X108.124 Y95.937 E0.10481
G1 X108.700 Y95.937 E0.01954
G1 X105.937 Y98.700 E0.13243
G1 X105.937 Y99.277 E0.01953
G1 X109.277 Y95.937 E0.16006
G1 X109.853 Y95.937 E0.01953
G1 X105.937 Y99.853 E0.18769
G1 X105.937 Y100.430 E0.01954
G1 X110.430 Y95.937 E0.21531
G1 X111.006 Y95.937 E0.01954
G1 X105.937 Y101.006 E0.24294
G1 X105.937 Y101.583 E0.01953
G1 X111.583 Y95.937 E0.27057
G1 X112.159 Y95.937 E0.01954
G1 X105.937 Y102.159 E0.29819
G1 X105.937 Y102.735 E0.01954
G1 X112.735 Y95.937 E0.32582
G1 X113.312 Y95.937 E0.01954
G1 X105.937 Y103.312 E0.35345
G1 X105.937 Y103.888 E0.01954
G1 X113.888 Y95.937 E0.38107
G1 X114.465 Y95.937 E0.01954
G1 X105.937 Y104.465 E0.40870
G1 X105.937 Y105.041 E0.01953
G1 X115.041 Y95.937 E0.43633
G1 X115.617 Y95.937 E0.01954
G1 X105.937 Y105.617 E0.46395
G1 X105.937 Y106.194 E0.01954
G1 X116.194 Y95.937 E0.49158
G1 X116.770 Y95.937 E0.01954
G1 X105.937 Y106.770 E0.51921
G1 X105.937 Y107.347 E0.01953
G1 X117.347 Y95.937 E0.54683
G1 X117.923 Y95.937 E0.01954
G1 X105.937 Y107.923 E0.57446
G1 X105.937 Y108.499 E0.01953
G1 X118.499 Y95.937 E0.60209
G1 X119.076 Y95.937 E0.01954
G1 X105.937 Y109.076 E0.62971
G1 X105.937 Y109.652 E0.01954
G1 X119.652 Y95.937 E0.65734
G1 X120.229 Y95.937 E0.01954
G1 X106.103 Y110.063 E0.67701
G1 X106.680 Y110.063 E0.01954
G1 X120.805 Y95.937 E0.67701
G1 X121.382 Y95.937 E0.01954
G1 X107.256 Y110.063 E0.67701
G1 X107.833 Y110.063 E0.01954
G1 X121.958 Y95.937 E0.67701
G1 X122.534 Y95.937 E0.01954
G1 X108.409 Y110.063 E0.67701
G1 X108.985 Y110.063 E0.01954
G1 X123.111 Y95.937 E0.67701
G1 X123.687 Y95.937 E0.01954
G1 X109.562 Y110.063 E0.67701
G1 X110.138 Y110.063 E0.01954
G1 X124.264 Y95.937 E0.67701
G1 X124.840 Y95.937 E0.01954
G1 X110.715 Y110.063 E0.67701
G1 X111.291 Y110.063 E0.01954
G1 X125.416 Y95.937 E0.67701
G1 X125.993 Y95.937 E0.01954
G1 X111.868 Y110.063 E0.67701
G1 X112.444 Y110.063 E0.01953
G1 X126.569 Y95.937 E0.67701
G1 X127.146 Y95.937 E0.01954
G1 X113.020 Y110.063 E0.67701
G1 X113.597 Y110.063 E0.01954
G1 X127.722 Y95.937 E0.67701
G1 X128.298 Y95.937 E0.01953
G1 X114.173 Y110.063 E0.67701
G1 X114.750 Y110.063 E0.01953
G1 X128.875 Y95.937 E0.67701
G1 X129.451 Y95.937 E0.01954
G1 X115.326 Y110.063 E0.67701
G1 X115.902 Y110.063 E0.01954
G1 X130.028 Y95.937 E0.67701
G1 X130.604 Y95.937 E0.01953
G1 X116.479 Y110.063 E0.67701
G1 X117.055 Y110.063 E0.01954
G1 X131.181 Y95.937 E0.67701
G1 X131.757 Y95.937 E0.01954
G1 X117.632 Y110.063 E0.67701
G1 X118.208 Y110.063 E0.01953
G1 X132.333 Y95.937 E0.67701
G1 X132.910 Y95.937 E0.01954
G1 X118.784 Y110.063 E0.67701
G1 X119.361 Y110.063 E0.01954
G1 X133.486 Y95.937 E0.67701
G1 X134.063 Y95.937 E0.01954
G1 X119.937 Y110.063 E0.67701
G1 X120.514 Y110.063 E0.01953
G1 X134.639 Y95.937 E0.67701
G1 X135.215 Y95.937 E0.01954
G1 X120.937 Y110.215 E0.68433
G1 X120.937 Y110.792 E0.01954
G1 X135.792 Y95.937 E0.71195
G1 X136.368 Y95.937 E0.01954
G1 X120.937 Y111.368 E0.73958
G1 X120.937 Y111.945 E0.01954
G1 X136.945 Y95.937 E0.76721
G1 X137.521 Y95.937 E0.01954
G1 X120.937 Y112.521 E0.79483
G1 X120.937 Y113.097 E0.01953
G1 X138.097 Y95.937 E0.82246
G1 X138.674 Y95.937 E0.01954
G1 X120.937 Y113.674 E0.85009
G1 X120.937 Y114.063 E0.01318
G1 X121.125 Y114.063 E0.00636
G1 X139.250 Y95.937 E0.86872
G1 X139.827 Y95.937 E0.01954
G1 X121.701 Y114.063 E0.86872
G1 X122.278 Y114.063 E0.01953
G1 X140.403 Y95.937 E0.86872
G1 X140.980 Y95.937 E0.01954
G1 X122.854 Y114.063 E0.86872
G1 X123.431 Y114.063 E0.01954
G1 X141.556 Y95.937 E0.86872
G1 X142.132 Y95.937 E0.01954
G1 X124.007 Y114.063 E0.86872
G1 X124.583 Y114.063 E0.01953
G1 X142.709 Y95.937 E0.86872
G1 X143.285 Y95.937 E0.01954
